(Projekt Brillenparkplatz)
(Erstellt mit Estlcam Version 11 Build 11,118)
(Laufzeit ca. 00:05:17 Stunden)

(Benoetigte Werkzeuge:)
(2 Schneider Weich)
G21
G90
G94
M03 S24000
G00 Z5.0000


(Nr. 1: Ausschnitt 1)
G00 X27.9221 Y11.9000
G00 Z0.5000
G01 Z-6.0000 F400 S24000
G01 X137.0780 F800
G01 Y15.5000
G01 X142.9941
G01 X22.0059
G01 Y19.1000
G01 X17.9773
G01 X147.0227
G01 X150.0148 Y22.7000
G01 X14.9852
G01 X12.7256 Y26.3000
G01 X152.2745
G01 X153.9663 Y29.9000
G01 X11.0337
G01 X9.8202 Y33.5000
G01 X155.1798
G01 X155.9648 Y37.1000
G01 X9.0352
G01 X8.6526 Y40.7000
G01 X156.3474
G01 Y44.3000
G01 X8.6526
G01 X9.0352 Y47.9000
G01 X155.9648
G01 X155.1798 Y51.5000
G01 X9.8202
G01 X11.0337 Y55.1000
G01 X153.9663
G01 X152.2744 Y58.7000
G01 X12.7255
G01 X14.9852 Y62.3000
G01 X150.0148
G01 X147.0227 Y65.9000
G01 X17.9773
G01 X22.0059
G01 Y69.5000
G01 X142.9941
G01 X137.0779
G01 Y73.1000
G01 X27.9220
G00 Z5.0000
G00 Z0.5000
G01 Z-6.0000 F400
G01 X27.6655 Y73.6424 F800
G02 X42.5200 Y77.0000 I14.8295 J-31.0697
G01 X122.4709 Y77.0001
G02 X122.4800 Y8.0000 I0.0286 J-34.5000
G01 X42.5291 Y7.9999
G02 X8.0004 Y42.5000 I-0.0283 J34.5004
G02 X8.6633 Y49.2305 I34.4996 J0.0000
G02 X27.6655 Y73.6424 I33.8172 J-6.7217
G01 X27.9220 Y73.1000
G00 Z5.0000


(Nr. 2: Teil 1)
G00 X43.8542 Y88.0000 Z5.0000
G00 Z0.5000
G01 Z-6.0000 F400
G01 X42.5000 F800
G01 X41.1711 Y87.9803
G01 X41.0605 Y87.9766
G01 X39.7980 Y87.9194
G01 X39.6876 Y87.9124
G01 X38.4275 Y87.8171
G01 X38.3173 Y87.8067
G01 X37.0606 Y87.6734
G01 X36.9508 Y87.6597
G01 X35.6987 Y87.4885
G01 X35.5894 Y87.4715
G01 X34.3430 Y87.2625
G01 X34.2343 Y87.2423
G01 X32.9948 Y86.9957
G01 X32.8867 Y86.9722
G01 X31.6552 Y86.6884
G01 X31.5479 Y86.6616
G01 X30.3255 Y86.3407
G01 X30.2191 Y86.3107
G01 X29.0070 Y85.9530
G01 X28.9014 Y85.9198
G01 X27.7007 Y85.5256
G01 X27.5962 Y85.4892
G01 X26.4080 Y85.0590
G01 X26.3046 Y85.0195
G01 X25.1299 Y84.5535
G01 X25.0278 Y84.5109
G01 X23.8677 Y84.0097
G01 X23.7669 Y83.9640
G01 X22.6224 Y83.4280
G01 X22.5231 Y83.3793
G01 X21.3954 Y82.8090
G01 X21.2976 Y82.7573
G01 X20.1875 Y82.1532
G01 X20.0913 Y82.0986
G01 X19.0001 Y81.4612
G01 X18.9056 Y81.4037
G01 X17.8340 Y80.7336
G01 X17.7413 Y80.6733
G01 X16.6905 Y79.9712
G01 X16.5997 Y79.9081
G01 X15.5706 Y79.1746
G01 X15.4816 Y79.1088
G01 X14.4752 Y78.3445
G01 X14.3883 Y78.2761
G01 X13.4053 Y77.4817
G01 X13.3205 Y77.4107
G01 X12.3620 Y76.5870
G01 X12.2795 Y76.5134
G01 X11.3463 Y75.6612
G01 X11.2659 Y75.5852
G01 X10.3589 Y74.7051
G01 X10.2809 Y74.6267
G01 X9.4009 Y73.7197
G01 X9.3253 Y73.6389
G01 X8.4731 Y72.7058
G01 X8.3999 Y72.6228
G01 X7.5763 Y71.6643
G01 X7.5057 Y71.5791
G01 X6.7114 Y70.5961
G01 X6.6434 Y70.5089
G01 X5.8791 Y69.5024
G01 X5.8138 Y69.4131
G01 X5.0802 Y68.3840
G01 X5.0177 Y68.2928
G01 X4.3155 Y67.2420
G01 X4.2557 Y67.1490
G01 X3.5857 Y66.0774
G01 X3.5287 Y65.9826
G01 X2.8913 Y64.8914
G01 X2.8372 Y64.7949
G01 X2.2331 Y63.6848
G01 X2.1820 Y63.5868
G01 X1.6116 Y62.4590
G01 X1.5635 Y62.3594
G01 X1.0275 Y61.2149
G01 X0.9823 Y61.1139
G01 X0.4811 Y59.9538
G01 X0.4391 Y59.8515
G01 X-0.0269 Y58.6767
G01 X-0.0658 Y58.5732
G01 X-0.4960 Y57.3849
G01 X-0.5318 Y57.2803
G01 X-0.9260 Y56.0795
G01 X-0.9586 Y55.9738
G01 X-1.3163 Y54.7617
G01 X-1.3457 Y54.6551
G01 X-1.6667 Y53.4327
G01 X-1.6929 Y53.3253
G01 X-1.9767 Y52.0938
G01 X-1.9997 Y51.9856
G01 X-2.2462 Y50.7461
G01 X-2.2658 Y50.6372
G01 X-2.4749 Y49.3908
G01 X-2.4912 Y49.2814
G01 X-2.6625 Y48.0293
G01 X-2.6755 Y47.9195
G01 X-2.8089 Y46.6628
G01 X-2.8186 Y46.5526
G01 X-2.9139 Y45.2924
G01 X-2.9203 Y45.1820
G01 X-2.9775 Y43.9195
G01 X-2.9806 Y43.8089
G01 X-2.9997 Y42.5453
G01 X-2.9994 Y42.4347
G01 X-2.9803 Y41.1710
G01 X-2.9766 Y41.0605
G01 X-2.9194 Y39.7980
G01 X-2.9124 Y39.6876
G01 X-2.8170 Y38.4274
G01 X-2.8067 Y38.3173
G01 X-2.6734 Y37.0606
G01 X-2.6597 Y36.9508
G01 X-2.4885 Y35.6987
G01 X-2.4715 Y35.5894
G01 X-2.2625 Y34.3430
G01 X-2.2423 Y34.2342
G01 X-1.9957 Y32.9947
G01 X-1.9722 Y32.8867
G01 X-1.6884 Y31.6552
G01 X-1.6616 Y31.5478
G01 X-1.3406 Y30.3255
G01 X-1.3107 Y30.2190
G01 X-0.9529 Y29.0069
G01 X-0.9197 Y28.9014
G01 X-0.5256 Y27.7007
G01 X-0.4892 Y27.5962
G01 X-0.0590 Y26.4079
G01 X-0.0195 Y26.3046
G01 X0.4465 Y25.1299
G01 X0.4891 Y25.0278
G01 X0.9903 Y23.8676
G01 X1.0360 Y23.7669
G01 X1.5720 Y22.6224
G01 X1.6207 Y22.5231
G01 X2.1910 Y21.3953
G01 X2.2427 Y21.2975
G01 X2.8468 Y20.1875
G01 X2.9014 Y20.0913
G01 X3.5388 Y19.0000
G01 X3.5963 Y18.9055
G01 X4.2664 Y17.8340
G01 X4.3267 Y17.7413
G01 X5.0288 Y16.6905
G01 X5.0919 Y16.5996
G01 X5.8254 Y15.5705
G01 X5.8912 Y15.4816
G01 X6.6555 Y14.4751
G01 X6.7240 Y14.3882
G01 X7.5183 Y13.4053
G01 X7.5893 Y13.3205
G01 X8.4130 Y12.3620
G01 X8.4866 Y12.2794
G01 X9.3388 Y11.3462
G01 X9.4149 Y11.2659
G01 X10.2949 Y10.3589
G01 X10.3733 Y10.2809
G01 X11.2803 Y9.4009
G01 X11.3611 Y9.3253
G01 X12.2943 Y8.4730
G01 X12.3773 Y8.3999
G01 X13.3358 Y7.5762
G01 X13.4209 Y7.5057
G01 X14.4039 Y6.7113
G01 X14.4911 Y6.6433
G01 X15.4976 Y5.8791
G01 X15.5869 Y5.8138
G01 X16.6160 Y5.0802
G01 X16.7072 Y5.0176
G01 X17.7580 Y4.3155
G01 X17.8511 Y4.2557
G01 X18.9226 Y3.5857
G01 X19.0174 Y3.5287
G01 X20.1087 Y2.8913
G01 X20.2052 Y2.8372
G01 X21.3152 Y2.2331
G01 X21.4133 Y2.1819
G01 X22.5410 Y1.6116
G01 X22.6406 Y1.5635
G01 X23.7851 Y1.0274
G01 X23.8861 Y0.9823
G01 X25.0462 Y0.4811
G01 X25.1485 Y0.4391
G01 X26.3233 Y-0.0269
G01 X26.4268 Y-0.0658
G01 X27.6151 Y-0.4961
G01 X27.7198 Y-0.5319
G01 X28.9205 Y-0.9260
G01 X29.0262 Y-0.9586
G01 X30.2383 Y-1.3163
G01 X30.3449 Y-1.3458
G01 X31.5673 Y-1.6667
G01 X31.6748 Y-1.6929
G01 X32.9062 Y-1.9767
G01 X33.0145 Y-1.9997
G01 X34.2540 Y-2.2462
G01 X34.3628 Y-2.2659
G01 X35.6092 Y-2.4749
G01 X35.7186 Y-2.4912
G01 X36.9707 Y-2.6625
G01 X37.0806 Y-2.6755
G01 X38.3373 Y-2.8089
G01 X38.4475 Y-2.8186
G01 X39.7076 Y-2.9139
G01 X39.8181 Y-2.9203
G01 X41.0806 Y-2.9775
G01 X41.1911 Y-2.9806
G01 X42.5201 Y-3.0000
G01 X45.1146
G01 X54.1146
G01 X110.4271
G01 X119.4271
G01 X122.5000
G01 X123.8289 Y-2.9803
G01 X123.9395 Y-2.9766
G01 X125.2020 Y-2.9194
G01 X125.3124 Y-2.9124
G01 X126.5725 Y-2.8171
G01 X126.6827 Y-2.8067
G01 X127.9394 Y-2.6734
G01 X128.0492 Y-2.6597
G01 X129.3013 Y-2.4885
G01 X129.4106 Y-2.4715
G01 X130.6570 Y-2.2625
G01 X130.7657 Y-2.2423
G01 X132.0052 Y-1.9957
G01 X132.1133 Y-1.9722
G01 X133.3448 Y-1.6884
G01 X133.4521 Y-1.6616
G01 X134.6745 Y-1.3407
G01 X134.7809 Y-1.3107
G01 X135.9930 Y-0.9530
G01 X136.0985 Y-0.9198
G01 X137.2993 Y-0.5256
G01 X137.4038 Y-0.4892
G01 X138.5920 Y-0.0590
G01 X138.6954 Y-0.0195
G01 X139.8701 Y0.4465
G01 X139.9722 Y0.4891
G01 X141.1323 Y0.9903
G01 X141.2331 Y1.0359
G01 X142.3775 Y1.5720
G01 X142.4769 Y1.6207
G01 X143.6046 Y2.1910
G01 X143.7024 Y2.2427
G01 X144.8125 Y2.8468
G01 X144.9087 Y2.9014
G01 X145.9999 Y3.5388
G01 X146.0944 Y3.5963
G01 X147.1659 Y4.2663
G01 X147.2587 Y4.3267
G01 X148.3095 Y5.0288
G01 X148.4003 Y5.0919
G01 X149.4294 Y5.8254
G01 X149.5183 Y5.8912
G01 X150.5248 Y6.6555
G01 X150.6117 Y6.7239
G01 X151.5947 Y7.5183
G01 X151.6794 Y7.5893
G01 X152.6379 Y8.4130
G01 X152.7205 Y8.4865
G01 X153.6537 Y9.3388
G01 X153.7341 Y9.4148
G01 X154.6411 Y10.2948
G01 X154.7191 Y10.3733
G01 X155.5991 Y11.2803
G01 X155.6747 Y11.3610
G01 X156.5269 Y12.2942
G01 X156.6001 Y12.3772
G01 X157.4237 Y13.3357
G01 X157.4943 Y13.4209
G01 X158.2886 Y14.4038
G01 X158.3566 Y14.4911
G01 X159.1209 Y15.4976
G01 X159.1862 Y15.5869
G01 X159.9197 Y16.6160
G01 X159.9823 Y16.7072
G01 X160.6844 Y17.7580
G01 X160.7443 Y17.8510
G01 X161.4143 Y18.9225
G01 X161.4713 Y19.0174
G01 X162.1087 Y20.1086
G01 X162.1627 Y20.2051
G01 X162.7669 Y21.3151
G01 X162.8180 Y21.4132
G01 X163.3884 Y22.5410
G01 X163.4365 Y22.6406
G01 X163.9725 Y23.7850
G01 X164.0177 Y23.8860
G01 X164.5189 Y25.0462
G01 X164.5609 Y25.1485
G01 X165.0269 Y26.3232
G01 X165.0658 Y26.4268
G01 X165.4960 Y27.6151
G01 X165.5318 Y27.7197
G01 X165.9260 Y28.9205
G01 X165.9586 Y29.0262
G01 X166.3163 Y30.2382
G01 X166.3457 Y30.3449
G01 X166.6667 Y31.5672
G01 X166.6929 Y31.6747
G01 X166.9767 Y32.9062
G01 X166.9997 Y33.0144
G01 X167.2462 Y34.2539
G01 X167.2658 Y34.3627
G01 X167.4748 Y35.6091
G01 X167.4912 Y35.7185
G01 X167.6625 Y36.9706
G01 X167.6755 Y37.0805
G01 X167.8089 Y38.3372
G01 X167.8186 Y38.4474
G01 X167.9139 Y39.7076
G01 X167.9203 Y39.8180
G01 X167.9775 Y41.0805
G01 X167.9806 Y41.1911
G01 X167.9997 Y42.4547
G01 X167.9994 Y42.5653
G01 X167.9803 Y43.8289
G01 X167.9766 Y43.9395
G01 X167.9194 Y45.2020
G01 X167.9124 Y45.3124
G01 X167.8171 Y46.5725
G01 X167.8067 Y46.6827
G01 X167.6734 Y47.9394
G01 X167.6597 Y48.0492
G01 X167.4885 Y49.3013
G01 X167.4715 Y49.4106
G01 X167.2625 Y50.6570
G01 X167.2423 Y50.7657
G01 X166.9957 Y52.0052
G01 X166.9722 Y52.1133
G01 X166.6884 Y53.3448
G01 X166.6616 Y53.4521
G01 X166.3407 Y54.6745
G01 X166.3107 Y54.7809
G01 X165.9530 Y55.9930
G01 X165.9198 Y56.0985
G01 X165.5256 Y57.2993
G01 X165.4892 Y57.4038
G01 X165.0590 Y58.5920
G01 X165.0195 Y58.6954
G01 X164.5535 Y59.8701
G01 X164.5109 Y59.9722
G01 X164.0097 Y61.1323
G01 X163.9641 Y61.2331
G01 X163.4280 Y62.3775
G01 X163.3793 Y62.4769
G01 X162.8090 Y63.6046
G01 X162.7573 Y63.7024
G01 X162.1532 Y64.8125
G01 X162.0986 Y64.9087
G01 X161.4612 Y65.9999
G01 X161.4037 Y66.0944
G01 X160.7337 Y67.1659
G01 X160.6733 Y67.2587
G01 X159.9712 Y68.3095
G01 X159.9081 Y68.4003
G01 X159.1746 Y69.4294
G01 X159.1088 Y69.5183
G01 X158.3445 Y70.5248
G01 X158.2761 Y70.6117
G01 X157.4817 Y71.5947
G01 X157.4107 Y71.6794
G01 X156.5870 Y72.6379
G01 X156.5134 Y72.7205
G01 X155.6612 Y73.6537
G01 X155.5852 Y73.7341
G01 X154.7052 Y74.6411
G01 X154.6267 Y74.7191
G01 X153.7197 Y75.5991
G01 X153.6390 Y75.6747
G01 X152.7058 Y76.5269
G01 X152.6228 Y76.6001
G01 X151.6643 Y77.4237
G01 X151.5791 Y77.4943
G01 X150.5962 Y78.2886
G01 X150.5089 Y78.3566
G01 X149.5024 Y79.1209
G01 X149.4131 Y79.1862
G01 X148.3840 Y79.9197
G01 X148.2928 Y79.9823
G01 X147.2420 Y80.6845
G01 X147.1490 Y80.7443
G01 X146.0775 Y81.4143
G01 X145.9826 Y81.4713
G01 X144.8914 Y82.1087
G01 X144.7949 Y82.1628
G01 X143.6849 Y82.7669
G01 X143.5868 Y82.8180
G01 X142.4590 Y83.3884
G01 X142.3594 Y83.4365
G01 X141.2150 Y83.9725
G01 X141.1140 Y84.0177
G01 X139.9538 Y84.5189
G01 X139.8515 Y84.5609
G01 X138.6768 Y85.0269
G01 X138.5732 Y85.0658
G01 X137.3849 Y85.4960
G01 X137.2803 Y85.5318
G01 X136.0795 Y85.9260
G01 X135.9738 Y85.9586
G01 X134.7618 Y86.3163
G01 X134.6551 Y86.3457
G01 X133.4328 Y86.6667
G01 X133.3253 Y86.6929
G01 X132.0938 Y86.9767
G01 X131.9856 Y86.9997
G01 X130.7461 Y87.2462
G01 X130.6373 Y87.2658
G01 X129.3909 Y87.4748
G01 X129.2815 Y87.4912
G01 X128.0294 Y87.6625
G01 X127.9195 Y87.6755
G01 X126.6628 Y87.8089
G01 X126.5526 Y87.8186
G01 X125.2924 Y87.9139
G01 X125.1820 Y87.9203
G01 X123.9195 Y87.9775
G01 X123.8089 Y87.9806
G01 X122.4800 Y88.0000
G01 X120.2292
G01 X111.2292
G01 X52.8542
G01 X43.8542
G01 Z-12.0000 F400
G01 X42.5000 F800
G01 X41.1711 Y87.9803
G01 X41.0605 Y87.9766
G01 X39.7980 Y87.9194
G01 X39.6876 Y87.9124
G01 X38.4275 Y87.8171
G01 X38.3173 Y87.8067
G01 X37.0606 Y87.6734
G01 X36.9508 Y87.6597
G01 X35.6987 Y87.4885
G01 X35.5894 Y87.4715
G01 X34.3430 Y87.2625
G01 X34.2343 Y87.2423
G01 X32.9948 Y86.9957
G01 X32.8867 Y86.9722
G01 X31.6552 Y86.6884
G01 X31.5479 Y86.6616
G01 X30.3255 Y86.3407
G01 X30.2191 Y86.3107
G01 X29.0070 Y85.9530
G01 X28.9014 Y85.9198
G01 X27.7007 Y85.5256
G01 X27.5962 Y85.4892
G01 X26.4080 Y85.0590
G01 X26.3046 Y85.0195
G01 X25.1299 Y84.5535
G01 X25.0278 Y84.5109
G01 X23.8677 Y84.0097
G01 X23.7669 Y83.9640
G01 X22.6224 Y83.4280
G01 X22.5231 Y83.3793
G01 X21.3954 Y82.8090
G01 X21.2976 Y82.7573
G01 X20.1875 Y82.1532
G01 X20.0913 Y82.0986
G01 X19.0001 Y81.4612
G01 X18.9056 Y81.4037
G01 X17.8340 Y80.7336
G01 X17.7413 Y80.6733
G01 X16.6905 Y79.9712
G01 X16.5997 Y79.9081
G01 X15.5706 Y79.1746
G01 X15.4816 Y79.1088
G01 X14.4752 Y78.3445
G01 X14.3883 Y78.2761
G01 X13.4053 Y77.4817
G01 X13.3205 Y77.4107
G01 X12.3620 Y76.5870
G01 X12.2795 Y76.5134
G01 X11.3463 Y75.6612
G01 X11.2659 Y75.5852
G01 X10.3589 Y74.7051
G01 X10.2809 Y74.6267
G01 X9.4009 Y73.7197
G01 X9.3253 Y73.6389
G01 X8.4731 Y72.7058
G01 X8.3999 Y72.6228
G01 X7.5763 Y71.6643
G01 X7.5057 Y71.5791
G01 X6.7114 Y70.5961
G01 X6.6434 Y70.5089
G01 X5.8791 Y69.5024
G01 X5.8138 Y69.4131
G01 X5.0802 Y68.3840
G01 X5.0177 Y68.2928
G01 X4.3155 Y67.2420
G01 X4.2557 Y67.1490
G01 X3.5857 Y66.0774
G01 X3.5287 Y65.9826
G01 X2.8913 Y64.8914
G01 X2.8372 Y64.7949
G01 X2.2331 Y63.6848
G01 X2.1820 Y63.5868
G01 X1.6116 Y62.4590
G01 X1.5635 Y62.3594
G01 X1.0275 Y61.2149
G01 X0.9823 Y61.1139
G01 X0.4811 Y59.9538
G01 X0.4391 Y59.8515
G01 X-0.0269 Y58.6767
G01 X-0.0658 Y58.5732
G01 X-0.4960 Y57.3849
G01 X-0.5318 Y57.2803
G01 X-0.9260 Y56.0795
G01 X-0.9586 Y55.9738
G01 X-1.3163 Y54.7617
G01 X-1.3457 Y54.6551
G01 X-1.6667 Y53.4327
G01 X-1.6929 Y53.3253
G01 X-1.9767 Y52.0938
G01 X-1.9997 Y51.9856
G01 X-2.2462 Y50.7461
G01 X-2.2658 Y50.6372
G01 X-2.4749 Y49.3908
G01 X-2.4912 Y49.2814
G01 X-2.6625 Y48.0293
G01 X-2.6755 Y47.9195
G01 X-2.8089 Y46.6628
G01 X-2.8186 Y46.5526
G01 X-2.9139 Y45.2924
G01 X-2.9203 Y45.1820
G01 X-2.9775 Y43.9195
G01 X-2.9806 Y43.8089
G01 X-2.9997 Y42.5453
G01 X-2.9994 Y42.4347
G01 X-2.9803 Y41.1710
G01 X-2.9766 Y41.0605
G01 X-2.9194 Y39.7980
G01 X-2.9124 Y39.6876
G01 X-2.8170 Y38.4274
G01 X-2.8067 Y38.3173
G01 X-2.6734 Y37.0606
G01 X-2.6597 Y36.9508
G01 X-2.4885 Y35.6987
G01 X-2.4715 Y35.5894
G01 X-2.2625 Y34.3430
G01 X-2.2423 Y34.2342
G01 X-1.9957 Y32.9947
G01 X-1.9722 Y32.8867
G01 X-1.6884 Y31.6552
G01 X-1.6616 Y31.5478
G01 X-1.3406 Y30.3255
G01 X-1.3107 Y30.2190
G01 X-0.9529 Y29.0069
G01 X-0.9197 Y28.9014
G01 X-0.5256 Y27.7007
G01 X-0.4892 Y27.5962
G01 X-0.0590 Y26.4079
G01 X-0.0195 Y26.3046
G01 X0.4465 Y25.1299
G01 X0.4891 Y25.0278
G01 X0.9903 Y23.8676
G01 X1.0360 Y23.7669
G01 X1.5720 Y22.6224
G01 X1.6207 Y22.5231
G01 X2.1910 Y21.3953
G01 X2.2427 Y21.2975
G01 X2.8468 Y20.1875
G01 X2.9014 Y20.0913
G01 X3.5388 Y19.0000
G01 X3.5963 Y18.9055
G01 X4.2664 Y17.8340
G01 X4.3267 Y17.7413
G01 X5.0288 Y16.6905
G01 X5.0919 Y16.5996
G01 X5.8254 Y15.5705
G01 X5.8912 Y15.4816
G01 X6.6555 Y14.4751
G01 X6.7240 Y14.3882
G01 X7.5183 Y13.4053
G01 X7.5893 Y13.3205
G01 X8.4130 Y12.3620
G01 X8.4866 Y12.2794
G01 X9.3388 Y11.3462
G01 X9.4149 Y11.2659
G01 X10.2949 Y10.3589
G01 X10.3733 Y10.2809
G01 X11.2803 Y9.4009
G01 X11.3611 Y9.3253
G01 X12.2943 Y8.4730
G01 X12.3773 Y8.3999
G01 X13.3358 Y7.5762
G01 X13.4209 Y7.5057
G01 X14.4039 Y6.7113
G01 X14.4911 Y6.6433
G01 X15.4976 Y5.8791
G01 X15.5869 Y5.8138
G01 X16.6160 Y5.0802
G01 X16.7072 Y5.0176
G01 X17.7580 Y4.3155
G01 X17.8511 Y4.2557
G01 X18.9226 Y3.5857
G01 X19.0174 Y3.5287
G01 X20.1087 Y2.8913
G01 X20.2052 Y2.8372
G01 X21.3152 Y2.2331
G01 X21.4133 Y2.1819
G01 X22.5410 Y1.6116
G01 X22.6406 Y1.5635
G01 X23.7851 Y1.0274
G01 X23.8861 Y0.9823
G01 X25.0462 Y0.4811
G01 X25.1485 Y0.4391
G01 X26.3233 Y-0.0269
G01 X26.4268 Y-0.0658
G01 X27.6151 Y-0.4961
G01 X27.7198 Y-0.5319
G01 X28.9205 Y-0.9260
G01 X29.0262 Y-0.9586
G01 X30.2383 Y-1.3163
G01 X30.3449 Y-1.3458
G01 X31.5673 Y-1.6667
G01 X31.6748 Y-1.6929
G01 X32.9062 Y-1.9767
G01 X33.0145 Y-1.9997
G01 X34.2540 Y-2.2462
G01 X34.3628 Y-2.2659
G01 X35.6092 Y-2.4749
G01 X35.7186 Y-2.4912
G01 X36.9707 Y-2.6625
G01 X37.0806 Y-2.6755
G01 X38.3373 Y-2.8089
G01 X38.4475 Y-2.8186
G01 X39.7076 Y-2.9139
G01 X39.8181 Y-2.9203
G01 X41.0806 Y-2.9775
G01 X41.1911 Y-2.9806
G01 X42.5201 Y-3.0000
G01 X45.1146
G00 Z-9.0000
G01 X54.1146
G01 Z-12.0000 F400
G01 X110.4271 F800
G00 Z-9.0000
G01 X119.4271
G01 Z-12.0000 F400
G01 X122.5000 F800
G01 X123.8289 Y-2.9803
G01 X123.9395 Y-2.9766
G01 X125.2020 Y-2.9194
G01 X125.3124 Y-2.9124
G01 X126.5725 Y-2.8171
G01 X126.6827 Y-2.8067
G01 X127.9394 Y-2.6734
G01 X128.0492 Y-2.6597
G01 X129.3013 Y-2.4885
G01 X129.4106 Y-2.4715
G01 X130.6570 Y-2.2625
G01 X130.7657 Y-2.2423
G01 X132.0052 Y-1.9957
G01 X132.1133 Y-1.9722
G01 X133.3448 Y-1.6884
G01 X133.4521 Y-1.6616
G01 X134.6745 Y-1.3407
G01 X134.7809 Y-1.3107
G01 X135.9930 Y-0.9530
G01 X136.0985 Y-0.9198
G01 X137.2993 Y-0.5256
G01 X137.4038 Y-0.4892
G01 X138.5920 Y-0.0590
G01 X138.6954 Y-0.0195
G01 X139.8701 Y0.4465
G01 X139.9722 Y0.4891
G01 X141.1323 Y0.9903
G01 X141.2331 Y1.0359
G01 X142.3775 Y1.5720
G01 X142.4769 Y1.6207
G01 X143.6046 Y2.1910
G01 X143.7024 Y2.2427
G01 X144.8125 Y2.8468
G01 X144.9087 Y2.9014
G01 X145.9999 Y3.5388
G01 X146.0944 Y3.5963
G01 X147.1659 Y4.2663
G01 X147.2587 Y4.3267
G01 X148.3095 Y5.0288
G01 X148.4003 Y5.0919
G01 X149.4294 Y5.8254
G01 X149.5183 Y5.8912
G01 X150.5248 Y6.6555
G01 X150.6117 Y6.7239
G01 X151.5947 Y7.5183
G01 X151.6794 Y7.5893
G01 X152.6379 Y8.4130
G01 X152.7205 Y8.4865
G01 X153.6537 Y9.3388
G01 X153.7341 Y9.4148
G01 X154.6411 Y10.2948
G01 X154.7191 Y10.3733
G01 X155.5991 Y11.2803
G01 X155.6747 Y11.3610
G01 X156.5269 Y12.2942
G01 X156.6001 Y12.3772
G01 X157.4237 Y13.3357
G01 X157.4943 Y13.4209
G01 X158.2886 Y14.4038
G01 X158.3566 Y14.4911
G01 X159.1209 Y15.4976
G01 X159.1862 Y15.5869
G01 X159.9197 Y16.6160
G01 X159.9823 Y16.7072
G01 X160.6844 Y17.7580
G01 X160.7443 Y17.8510
G01 X161.4143 Y18.9225
G01 X161.4713 Y19.0174
G01 X162.1087 Y20.1086
G01 X162.1627 Y20.2051
G01 X162.7669 Y21.3151
G01 X162.8180 Y21.4132
G01 X163.3884 Y22.5410
G01 X163.4365 Y22.6406
G01 X163.9725 Y23.7850
G01 X164.0177 Y23.8860
G01 X164.5189 Y25.0462
G01 X164.5609 Y25.1485
G01 X165.0269 Y26.3232
G01 X165.0658 Y26.4268
G01 X165.4960 Y27.6151
G01 X165.5318 Y27.7197
G01 X165.9260 Y28.9205
G01 X165.9586 Y29.0262
G01 X166.3163 Y30.2382
G01 X166.3457 Y30.3449
G01 X166.6667 Y31.5672
G01 X166.6929 Y31.6747
G01 X166.9767 Y32.9062
G01 X166.9997 Y33.0144
G01 X167.2462 Y34.2539
G01 X167.2658 Y34.3627
G01 X167.4748 Y35.6091
G01 X167.4912 Y35.7185
G01 X167.6625 Y36.9706
G01 X167.6755 Y37.0805
G01 X167.8089 Y38.3372
G01 X167.8186 Y38.4474
G01 X167.9139 Y39.7076
G01 X167.9203 Y39.8180
G01 X167.9775 Y41.0805
G01 X167.9806 Y41.1911
G01 X167.9997 Y42.4547
G01 X167.9994 Y42.5653
G01 X167.9803 Y43.8289
G01 X167.9766 Y43.9395
G01 X167.9194 Y45.2020
G01 X167.9124 Y45.3124
G01 X167.8171 Y46.5725
G01 X167.8067 Y46.6827
G01 X167.6734 Y47.9394
G01 X167.6597 Y48.0492
G01 X167.4885 Y49.3013
G01 X167.4715 Y49.4106
G01 X167.2625 Y50.6570
G01 X167.2423 Y50.7657
G01 X166.9957 Y52.0052
G01 X166.9722 Y52.1133
G01 X166.6884 Y53.3448
G01 X166.6616 Y53.4521
G01 X166.3407 Y54.6745
G01 X166.3107 Y54.7809
G01 X165.9530 Y55.9930
G01 X165.9198 Y56.0985
G01 X165.5256 Y57.2993
G01 X165.4892 Y57.4038
G01 X165.0590 Y58.5920
G01 X165.0195 Y58.6954
G01 X164.5535 Y59.8701
G01 X164.5109 Y59.9722
G01 X164.0097 Y61.1323
G01 X163.9641 Y61.2331
G01 X163.4280 Y62.3775
G01 X163.3793 Y62.4769
G01 X162.8090 Y63.6046
G01 X162.7573 Y63.7024
G01 X162.1532 Y64.8125
G01 X162.0986 Y64.9087
G01 X161.4612 Y65.9999
G01 X161.4037 Y66.0944
G01 X160.7337 Y67.1659
G01 X160.6733 Y67.2587
G01 X159.9712 Y68.3095
G01 X159.9081 Y68.4003
G01 X159.1746 Y69.4294
G01 X159.1088 Y69.5183
G01 X158.3445 Y70.5248
G01 X158.2761 Y70.6117
G01 X157.4817 Y71.5947
G01 X157.4107 Y71.6794
G01 X156.5870 Y72.6379
G01 X156.5134 Y72.7205
G01 X155.6612 Y73.6537
G01 X155.5852 Y73.7341
G01 X154.7052 Y74.6411
G01 X154.6267 Y74.7191
G01 X153.7197 Y75.5991
G01 X153.6390 Y75.6747
G01 X152.7058 Y76.5269
G01 X152.6228 Y76.6001
G01 X151.6643 Y77.4237
G01 X151.5791 Y77.4943
G01 X150.5962 Y78.2886
G01 X150.5089 Y78.3566
G01 X149.5024 Y79.1209
G01 X149.4131 Y79.1862
G01 X148.3840 Y79.9197
G01 X148.2928 Y79.9823
G01 X147.2420 Y80.6845
G01 X147.1490 Y80.7443
G01 X146.0775 Y81.4143
G01 X145.9826 Y81.4713
G01 X144.8914 Y82.1087
G01 X144.7949 Y82.1628
G01 X143.6849 Y82.7669
G01 X143.5868 Y82.8180
G01 X142.4590 Y83.3884
G01 X142.3594 Y83.4365
G01 X141.2150 Y83.9725
G01 X141.1140 Y84.0177
G01 X139.9538 Y84.5189
G01 X139.8515 Y84.5609
G01 X138.6768 Y85.0269
G01 X138.5732 Y85.0658
G01 X137.3849 Y85.4960
G01 X137.2803 Y85.5318
G01 X136.0795 Y85.9260
G01 X135.9738 Y85.9586
G01 X134.7618 Y86.3163
G01 X134.6551 Y86.3457
G01 X133.4328 Y86.6667
G01 X133.3253 Y86.6929
G01 X132.0938 Y86.9767
G01 X131.9856 Y86.9997
G01 X130.7461 Y87.2462
G01 X130.6373 Y87.2658
G01 X129.3909 Y87.4748
G01 X129.2815 Y87.4912
G01 X128.0294 Y87.6625
G01 X127.9195 Y87.6755
G01 X126.6628 Y87.8089
G01 X126.5526 Y87.8186
G01 X125.2924 Y87.9139
G01 X125.1820 Y87.9203
G01 X123.9195 Y87.9775
G01 X123.8089 Y87.9806
G01 X122.4800 Y88.0000
G01 X120.2292
G00 Z-9.0000
G01 X111.2292
G01 Z-12.0000 F400
G01 X52.8542 F800
G00 Z-9.0000
G01 X43.8542
G00 Z5.0000
G00 X0.0000 Y0.0000

M05
M30
